X:1
T:[ID 5-50]
T:[ID 5-50]
T:Bezeichnung standardisiert: Menuett Menuet
T:Urheber unbekannt Erstbeleg: 1773 (Datum in der schriftlichen Quelle) Datum in der hier transkribierten schriftlichen Quelle: vermutlich um 1800
C:Urheber unbekannt
C:Erstbeleg: 1773 (Datum in der schriftlichen Quelle)
C:Datum in der hier transkribierten schriftlichen Quelle: vermutlich um 1800
L:1/8
M:3/4
K:G
V:1 treble 
V:1
 B,4 CA, | G4 AF | GB, edcB |{B} A4{GA} G2 | c4 (3edc | B>d B3 B | (3cde A2 G2 | F6 :: F4 GE | %9
 d4 ec | dF fdBA |{B} A4{GA} G2 | c2 E>ce>c | B>G B2 B>d | cB/A/ G2 C2 | B,6 :| %16

